icons/house.svg

<?xml version="1.0" encoding="UTF-8"?><svg id="uuid-042f9178-f1b4-45b2-ae14-021dc3c68464" xmlns="http://www.w3.org/2000/svg" viewBox="0 0 50 50"><rect x="20.17" y="48.82" width=".5" height=".5"/><polygon points="21.38 36.32 17.56 36.32 17.56 36.99 21.96 36.99 21.96 31.66 21.38 31.66 21.38 36.32" fill="none"/><polygon points="21.38 29.99 17.56 29.99 17.56 30.66 21.96 30.66 21.96 25.32 21.38 25.32 21.38 29.99" fill="none"/><polygon points="15.98 36.32 12.16 36.32 12.16 36.99 16.56 36.99 16.56 31.66 15.98 31.66 15.98 36.32" fill="none"/><path d="M29.83,36.03h-1.72v.67s.04-.01,.05-.01h2.13c.02-.05,.03-.11,.03-.16,0-.28-.22-.5-.5-.5Z" fill="none"/><polygon points="38.42 47.68 28.11 47.68 28.11 48.34 39 48.34 39 25.32 38.42 25.32 38.42 47.68" fill="none"/><path d="M15.98,29.99h-3.82v.66h4.4v-5.27s0-.04,.01-.06h-.59v4.67Z" fill="none"/><path d="M48.64,19.11L25.31,.79c-.18-.14-.44-.14-.62,0l-8.06,6.33V2.51c0-.28-.22-.5-.5-.5h-5.03c-.28,0-.5,.22-.5,.5V11.85L1.36,19.11c-.17,.13-.23,.36-.16,.56,.07,.2,.26,.34,.47,.34H6.9v28.18c0,.28,.22,.5,.5,.5H42.6c.28,0,.5-.22,.5-.5V20h5.22c.21,0,.4-.13,.47-.34,.07-.2,0-.42-.16-.56ZM11.6,3.01h4.03V7.9l-4.03,3.17V3.01Zm26.82,44.67h-10.89v-10.66s.04,.01,.05,.01h2.25c.28,0,.5-.22,.5-.5s-.22-.5-.5-.5h-2.25s-.04,0-.05,.01v-11.38h10.89v23.02Zm3.68,0h-2.68V24.16c0-.28-.22-.5-.5-.5h-11.89c-.28,0-.5,.22-.5,.5v23.52H7.9V20H42.1v27.68ZM3.12,19L25,1.81l21.88,17.19H3.12Z"/><path d="M11.08,37.32h10.8c.28,0,.5-.22,.5-.5v-12.66c0-.28-.22-.5-.5-.5H11.08c-.28,0-.5,.22-.5,.5v12.66c0,.28,.22,.5,.5,.5Zm10.3-1h-4.4v-5.33h4.4v5.33Zm0-11.66v5.33h-4.4v-5.27s0-.04-.01-.06h4.41Zm-9.8,0h4.41s-.01,.04-.01,.06v5.27h-4.4v-5.33Zm0,6.33h4.4v5.33h-4.4v-5.33Z"/></svg>

<svg id="b7b285ba-809b-4317-8d35-0f35b1490d8f" data-name="ICONS" xmlns="http://www.w3.org/2000/svg" viewBox="0 0 50 50"><rect x="20.17" y="48.82" width="0.5" height="0.5"/><polygon points="21.38 36.32 17.56 36.32 17.56 36.99 21.96 36.99 21.96 31.66 21.38 31.66 21.38 36.32" fill="none"/><polygon points="21.38 29.99 17.56 29.99 17.56 30.66 21.96 30.66 21.96 25.32 21.38 25.32 21.38 29.99" fill="none"/><polygon points="15.98 36.32 12.16 36.32 12.16 36.99 16.56 36.99 16.56 31.66 15.98 31.66 15.98 36.32" fill="none"/><path d="M29.83,36H28.11v.68H30.3a.51.51,0,0,0,0-.17A.5.5,0,0,0,29.83,36Z" fill="none"/><polygon points="38.42 47.68 28.11 47.68 28.11 48.34 39 48.34 39 25.32 38.42 25.32 38.42 47.68" fill="none"/><path d="M16,30H12.16v.67h4.4V25.38s0,0,0-.06H16Z" fill="none"/><path d="M48.64,19.11,25.31.79a.48.48,0,0,0-.62,0L16.63,7.11V2.51a.5.5,0,0,0-.5-.5h-5a.5.5,0,0,0-.5.5v9.34L1.36,19.11a.51.51,0,0,0-.16.56.5.5,0,0,0,.47.33H6.9V48.18a.5.5,0,0,0,.5.5H42.6a.5.5,0,0,0,.5-.5V20h5.23a.5.5,0,0,0,.47-.33A.51.51,0,0,0,48.64,19.11ZM11.6,3h4V7.9l-4,3.17ZM38.42,47.68H27.53V37h2.3a.5.5,0,0,0,.5-.5.5.5,0,0,0-.5-.5h-2.3V24.66H38.42Zm3.68,0H39.42V24.16a.5.5,0,0,0-.5-.5H27a.5.5,0,0,0-.5.5V47.68H7.9V20H42.1ZM3.12,19,25,1.81,46.88,19Z"/><path d="M11.08,37.32h10.8a.5.5,0,0,0,.5-.5V24.16a.5.5,0,0,0-.5-.5H11.08a.5.5,0,0,0-.5.5V36.82A.5.5,0,0,0,11.08,37.32Zm10.3-1H17V31h4.4Zm0-11.66V30H17V24.72s0,0,0-.06Zm-9.8,0H16s0,0,0,.06V30h-4.4Zm0,6.33H16v5.33h-4.4Z"/></svg>
